X:1
T:Runtenom Polska efter Nils Mårtensson
O: Stora Herrestad, Skåne
R:Polska
M:3/4
L:1/16
N:SvL 1100 (Skåne IV s.12)
Z:Andy Davey 2018
K:G
Q: 1/2=120
[| G4 A3c B3A | d4 e3g f3e | f3a e2g2 f2a2 | g3e d4-d4 |
    d3g f2e2 d2c2 | B3d c2A2 F2D2 | G2B2 A2c2 B2d2 | c2A2 F2G2 G4 :| ]

